projects/cni/stacked/white/cni-stacked-white.svg

<svg xmlns="http://www.w3.org/2000/svg" role="img" viewBox="-4.59 -8.59 580.18 810.68"><style>svg {enable-background:new 0 0 568 792}</style><style>.st0{fill:#fff}</style><path d="M170.3 761.7S149.8 787 106.8 787c-56.4 0-95.6-43.9-95.6-100.4 0-57.1 39.1-100.7 95.6-100.7 43 0 63.5 25 63.5 25L160 625s-19.6-21.8-52.9-21.8c-45.5 0-77 37.8-77 83.4 0 45.2 31.4 83.1 77 83.1 33.4 0 52.9-21.8 52.9-21.8l10.3 13.8zm246.3 20.8h-14.1l-126-161.3v161.3h-18.3V590.1H273l125.4 160.4V590.1h18.3v192.4zm143.6 0h-18.3V590.1h18.3v192.4z" class="st0"/><path d="M518.8 312.8L422.7 244l96.1-68.9c2.1-1.5 3.4-4.3 3.4-7.3s-1.3-5.8-3.4-7.3L306.2 8.1c-2.1-1.5-4.7-1.5-6.8 0L86.9 160.5c-2.1 1.5-3.4 4.3-3.4 7.3v152.3c0 3 1.3 5.8 3.4 7.3l212.6 152.3c1.1.8 2.2 1.1 3.4 1.1 1.2 0 2.3-.4 3.4-1.1l212.6-152.3c2.1-1.5 3.4-4.3 3.4-7.3-.1-3-1.4-5.8-3.5-7.3zm-135.4-60.1L353.6 231l81.2-61 2.2-2 .7-.5-41.5-30.3 30.7-23.1 74.5 53.4-17 12.7-101 72.5zm-120-199.2l29.9 21.8-116.4 87.4-32.4-23.7 8.9-6.7 110-78.8zm154.3 54l-30.6 23-114.6-83.6 30.3-21.7 114.9 82.3zm-105.8 93l75.3-56.6 32.4 23.6-75.3 56.5-32.4-23.5zm23.4 30.4L303.2 255l-117.3-85.6L302.2 82l75.9 55.4-84.2 63.3 41.4 30.2zm-199.9-85.1l32.4 23.7-30.1 22.6-32.7-23.5 30.4-22.8zm11.5 52.8l30-22.5 117.6 85.8-28.9 21.7-118.7-85zm197.7 39.1l29.6 21.6-71.3 51.1-28.2-20.2 69.9-52.5zM97.1 182.4L183 244l-85.9 61.5V182.4zm205.7 280.3l-199-142.6 92.7-66.4 102.9 73.7c1.1.8 2.2 1.1 3.4 1.1h.1l1 .7 4.9-3.7 100.3-71.9 92.7 66.4-199 142.7z" class="st0"/></svg>

<?xml version="1.0" encoding="utf-8"?>
<!-- Generator: Adobe Illustrator 21.1.0, SVG Export Plug-In . SVG Version: 6.00 Build 0)  -->
<svg version="1.1" id="Layer_1" xmlns="http://www.w3.org/2000/svg" xmlns:xlink="http://www.w3.org/1999/xlink" x="0px" y="0px"
	 viewBox="0 0 568 792" style="enable-background:new 0 0 568 792;" xml:space="preserve">
<style type="text/css">
	.st0{fill:#FFFFFF;}
</style>
<g>
	<g>
		<path class="st0" d="M170.3,761.7c0,0-20.5,25.3-63.5,25.3c-56.4,0-95.6-43.9-95.6-100.4c0-57.1,39.1-100.7,95.6-100.7
			c43,0,63.5,25,63.5,25L160,625c0,0-19.6-21.8-52.9-21.8c-45.5,0-77,37.8-77,83.4c0,45.2,31.4,83.1,77,83.1
			c33.4,0,52.9-21.8,52.9-21.8L170.3,761.7z"/>
		<path class="st0" d="M416.6,782.5h-14.1l-126-161.3v161.3h-18.3V590.1h14.8l125.4,160.4V590.1h18.3V782.5z"/>
		<path class="st0" d="M560.2,782.5h-18.3V590.1h18.3V782.5z"/>
	</g>
</g>
<path class="st0" d="M518.8,312.8L422.7,244l96.1-68.9c2.1-1.5,3.4-4.3,3.4-7.3c0-3-1.3-5.8-3.4-7.3L306.2,8.1
	c-2.1-1.5-4.7-1.5-6.8,0L86.9,160.5c-2.1,1.5-3.4,4.3-3.4,7.3v152.3c0,3,1.3,5.8,3.4,7.3l212.6,152.3c1.1,0.8,2.2,1.1,3.4,1.1
	c1.2,0,2.3-0.4,3.4-1.1l212.6-152.3c2.1-1.5,3.4-4.3,3.4-7.3C522.2,317.1,520.9,314.3,518.8,312.8z M383.4,252.7l-29.8-21.7l81.2-61
	l2.2-2l0.7-0.5l-41.5-30.3l30.7-23.1l74.5,53.4l-17,12.7L383.4,252.7z M263.4,53.5l29.9,21.8l-116.4,87.4l-32.4-23.7l8.9-6.7
	L263.4,53.5z M417.7,107.5l-30.6,23L272.5,46.9l30.3-21.7L417.7,107.5z M311.9,200.5l75.3-56.6l32.4,23.6l-75.3,56.5L311.9,200.5z
	 M335.3,230.9L303.2,255l-117.3-85.6L302.2,82l75.9,55.4l-84.2,63.3L335.3,230.9z M135.4,145.8l32.4,23.7l-30.1,22.6L105,168.6
	L135.4,145.8z M146.9,198.6l30-22.5l117.6,85.8l-28.9,21.7L146.9,198.6z M344.6,237.7l29.6,21.6l-71.3,51.1l-28.2-20.2L344.6,237.7z
	 M97.1,182.4L183,244l-85.9,61.5V182.4z M302.8,462.7l-199-142.6l92.7-66.4l102.9,73.7c1.1,0.8,2.2,1.1,3.4,1.1c0,0,0.1,0,0.1,0
	l1,0.7l4.9-3.7l100.3-71.9l92.7,66.4L302.8,462.7z"/>
</svg>
